X:284
T:Souls of Men! Why Will Ye Scatter
%%stretchlast false
M:4/4
L:1/4
K:F clef=C1
"^I"[F,Acf] "^vii°¹"[G,GBe]/ "^viiø7¹"[G,EBd]/ "^I¹"[A,FAc] "^vi"[DFAf] | "^ii7¹"[B,Fdg] "^vi7³"[Ccdf]/ "^V"[Cceg]/ "^I"[F,cfa] "^I¹"[A,Fcf] | "^ii7"[G,Fdb] "^iii¹"[CEca]/ "^V"[CEcg]/ "^I¹"[A,Fca] "^ii"[DAdg]/ "^vi"[DAdf]/ | "^vii°¹"[G,Be]/ "^I¹"[A,Acf]/ "^ii¹"[B,Gdg]/ "^V7"[CBce]/ "^I"[F,Acf]2 | [F,Acf] "^vii°¹"[G,GBe]/ "^viiø7¹"[G,EBd]/ "^I¹"[A,FAc] "^vi"[DFAf] | "^ii7¹"[B,Fdg] "^vi7³"[Ccdf]/ "^V"[Cceg]/ "^I"[F,cfa] "^I¹"[A,Fcf] | "^ii7"[G,Fdb] "^iii¹"[CEca]/ "^V"[CEcg]/ "^I¹"[A,Fca] "^ii"[DAdg]/ "^vi"[DAdf]/ | "^vii°¹"[G,Be]/ "^I¹"[A,Acf]/ "^ii¹"[B,Gdg]/ "^V7"[CBce]/ "^I"[F,Acf]2 | "^vi"[DFAf] "^v"[C_E_eg]/ [C_E_ea]/ "^IV"[B,Fdb] "^iii°¹"[Cc_ea] | "^ii²"[DBdg] "^V/ii"[DAd_g] "^ii"[G,Bdg] [G,Bdg] | "^V"[Cceg] "^iii"[B,Eca]/ "^V7³"[B,Ecb]/ "^I"[FAcc'] "^vi"[DAdf] | "^V¹"[E,Gcg] "^I"[F,Acf]/ "^Imaj7"[F,Ace]/ "^II7"[G,F=Bd] "^V7"[CEBc] | "^I"[F,Acf] "^vii°¹"[G,GBe]/ "^viiø7¹"[G,EBd]/ "^I¹"[A,FAc] "^vi"[DFAf] | "^ii7¹"[B,Fdg] "^vi7³"[Ccdf]/ "^V"[Cceg]/ "^I"[F,cfa] "^I¹"[A,Fcf] | "^ii7"[G,Fdb] "^iii¹"[CEca]/ "^V"[CEcg]/ "^I¹"[A,Fca] "^ii"[DAdg]/ "^vi"[DAdf]/ | "^vii°¹"[G,Be]/ "^I¹"[A,Acf]/ "^ii¹"[B,Gdg]/ "^V7"[CBce]/ "^I"[F,Acf]2 |]
